svg/add-properties.svg

<?xml version="1.0" encoding="UTF-8"?>
<svg xmlns="http://www.w3.org/2000/svg" xmlns:xlink="http://www.w3.org/1999/xlink" width="32" height="32" viewBox="0 0 32 32">
<path fill-rule="nonzero" fill="rgb(0%, 0%, 0%)" fill-opacity="1" d="M 1.800781 0 C 0.8125 0 0 0.8125 0 1.800781 L 0 4.480469 L 28.160156 4.480469 L 28.160156 1.800781 C 28.160156 0.8125 27.347656 0 26.359375 0 Z M 0 5.761719 L 0 25.601562 C 0 25.953125 0.289062 26.238281 0.640625 26.238281 L 19.238281 26.238281 C 19.5625 29.46875 22.289062 32 25.601562 32 C 29.132812 31.996094 31.996094 29.132812 32 25.601562 C 31.996094 23.058594 30.492188 20.757812 28.160156 19.738281 L 28.160156 5.761719 Z M 4.480469 9.601562 L 7.039062 9.601562 L 7.039062 10.878906 L 4.480469 10.878906 Z M 8.960938 9.601562 L 23.679688 9.601562 L 23.679688 10.878906 L 8.960938 10.878906 Z M 4.480469 12.800781 L 7.039062 12.800781 L 7.039062 14.078125 L 4.480469 14.078125 Z M 8.960938 12.800781 L 23.679688 12.800781 L 23.679688 14.078125 L 8.960938 14.078125 Z M 4.480469 16 L 7.039062 16 L 7.039062 17.28125 L 4.480469 17.28125 Z M 8.960938 16 L 23.679688 16 L 23.679688 17.28125 L 8.960938 17.28125 Z M 4.480469 19.199219 L 7.039062 19.199219 L 7.039062 20.480469 L 4.480469 20.480469 Z M 8.960938 19.199219 L 19.199219 19.199219 L 19.199219 20.480469 L 8.960938 20.480469 Z M 25.601562 20.480469 C 28.429688 20.484375 30.71875 22.773438 30.71875 25.601562 C 30.714844 28.425781 28.425781 30.714844 25.601562 30.71875 C 22.773438 30.71875 20.484375 28.429688 20.480469 25.601562 C 20.480469 22.773438 22.773438 20.480469 25.601562 20.480469 M 24.960938 22.398438 L 24.960938 24.960938 L 22.398438 24.960938 L 22.398438 26.238281 L 24.960938 26.238281 L 24.960938 28.800781 L 26.238281 28.800781 L 26.238281 26.238281 L 28.800781 26.238281 L 28.800781 24.960938 L 26.238281 24.960938 L 26.238281 22.398438 Z M 24.960938 22.398438 "/>
</svg>

<svg role="img" viewBox="0 0 32 32" height="32" width="32" xmlns="http://www.w3.org/2000/svg"><path d="M1.8 0C.814 0 0 .813 0 1.8v2.68h28.16V1.8c0-.987-.812-1.8-1.8-1.8ZM0 5.762v19.84c0 .351.29.636.64.636h18.598C19.563 29.468 22.29 32 25.602 32A6.407 6.407 0 0 0 32 25.602a6.407 6.407 0 0 0-3.84-5.864V5.762Zm4.48 3.84h2.56v1.277H4.48Zm4.48 0h14.72v1.277H8.96ZM4.48 12.8h2.56v1.277H4.48Zm4.48 0h14.72v1.277H8.96ZM4.48 16h2.56v1.281H4.48Zm4.48 0h14.72v1.281H8.96Zm-4.48 3.2h2.56v1.28H4.48Zm4.48 0H19.2v1.28H8.96Zm16.642 1.28a5.123 5.123 0 0 1 5.117 5.122 5.125 5.125 0 0 1-5.117 5.117 5.123 5.123 0 0 1-5.122-5.117 5.121 5.121 0 0 1 5.122-5.122m-.641 1.918v2.563h-2.563v1.277h2.563v2.563h1.277v-2.563h2.563v-1.277h-2.563v-2.563Zm0 0"/></svg>
